X:1
T:The Ship Carpenter's Wife
M:6/8
L:1/8
K:G
G/2-A/2| Bdd dBA| GEF G2G/2-A/2| Bdd dBG| BAA A2 B/2B/2| Bddd-B A|\
 GEF G2A/2-A/2| BAB GAB| AGE E2||
